src/assets/images/site/favicon.svg

<?xml version="1.0" encoding="UTF-8" standalone="no"?>
<!-- Created with Inkscape (http://www.inkscape.org/) -->

<svg
   width="300"
   height="300"
   viewBox="0 0 79.375 79.375001"
   version="1.1"
   id="svg1"
   xml:space="preserve"
   inkscape:version="1.4.4 (dcaf3e7d9e, 2026-05-05)"
   sodipodi:docname="favicon.svg"
   xmlns:inkscape="http://www.inkscape.org/namespaces/inkscape"
   xmlns:sodipodi="http://sodipodi.sourceforge.net/DTD/sodipodi-0.dtd"
   xmlns:xlink="http://www.w3.org/1999/xlink"
   xmlns="http://www.w3.org/2000/svg"
   xmlns:svg="http://www.w3.org/2000/svg"><sodipodi:namedview
     id="namedview1"
     pagecolor="#ffffff"
     bordercolor="#000000"
     borderopacity="0.25"
     inkscape:showpageshadow="2"
     inkscape:pageopacity="0.0"
     inkscape:pagecheckerboard="0"
     inkscape:deskcolor="#d1d1d1"
     inkscape:document-units="mm"
     showguides="true"
     inkscape:zoom="0.72426347"
     inkscape:cx="230.57907"
     inkscape:cy="229.88872"
     inkscape:window-width="1920"
     inkscape:window-height="1019"
     inkscape:window-x="0"
     inkscape:window-y="0"
     inkscape:window-maximized="1"
     inkscape:current-layer="layer1" /><defs
     id="defs1"><linearGradient
       id="linearGradient6"
       inkscape:collect="always"><stop
         style="stop-color:#266791;stop-opacity:1;"
         offset="0"
         id="stop6" /><stop
         style="stop-color:#369d99;stop-opacity:1"
         offset="1"
         id="stop7" /></linearGradient><inkscape:path-effect
       effect="fillet_chamfer"
       id="path-effect6"
       is_visible="true"
       lpeversion="1"
       nodesatellites_param="F,0,0,1,0,0,0,1 @ F,0,0,1,0,0,0,1 @ F,0,0,1,0,0,0,1 @ F,0,0,1,0,0,0,1 @ F,0,0,1,0,0,0,1 @ F,0,0,1,0,0,0,1 @ F,0,0,1,0,0,0,1 @ F,0,0,1,0,0,0,1 @ F,0,0,1,0,0,0,1 @ F,0,0,1,0,0,0,1 @ F,0,0,1,0,0,0,1 @ F,0,0,1,0,0,0,1 @ F,0,0,1,0,0,0,1 @ F,0,0,1,0,0,0,1 @ F,0,0,1,0,2.3124996,0,1 @ F,0,0,1,0,2.2081504,0,1 @ F,0,0,1,0,3.2812593,0,1 @ F,0,0,1,0,0,0,1 @ F,0,0,1,0,0,0,1 @ F,0,0,1,0,0,0,1 @ F,0,0,1,0,3.2130137,0,1 @ F,0,0,1,0,0,0,1 @ F,0,0,1,0,0,0,1 @ F,0,0,1,0,0,0,1 @ F,0,0,1,0,3.5777103,0,1 @ F,0,0,1,0,0,0,1 @ F,0,0,1,0,0,0,1 @ F,0,0,1,0,0,0,1 @ F,0,0,1,0,0,0,1"
       radius="0"
       unit="px"
       method="auto"
       mode="F"
       chamfer_steps="1"
       flexible="false"
       use_knot_distance="true"
       apply_no_radius="true"
       apply_with_radius="true"
       only_selected="false"
       hide_knots="false" /><inkscape:path-effect
       effect="fillet_chamfer"
       id="path-effect5"
       is_visible="true"
       lpeversion="1"
       nodesatellites_param="F,0,0,1,0,0,0,1 @ F,0,0,1,0,0,0,1 @ F,0,0,1,0,0,0,1 @ F,0,0,1,0,0,0,1 @ F,0,0,1,0,0,0,1 @ F,0,0,1,0,0,0,1 @ F,0,0,1,0,0,0,1 @ F,0,0,1,0,0,0,1 @ F,0,0,1,0,0,0,1 @ F,0,0,1,0,0,0,1 @ F,0,0,1,0,0,0,1 @ F,0,0,1,0,0,0,1 @ F,0,0,1,0,0,0,1 @ F,0,0,1,0,1.4982399,0,1 @ F,0,0,1,0,0,0,1 @ F,0,0,1,0,0,0,1 @ F,0,0,1,0,0,0,1 @ F,0,0,1,0,0,0,1 @ F,0,0,1,0,0,0,1 @ F,0,0,1,0,0,0,1 @ F,0,0,1,0,0,0,1 @ F,0,0,1,0,0,0,1 @ F,0,0,1,0,0,0,1 @ F,0,0,1,0,0,0,1 @ F,0,0,1,0,0,0,1 @ F,0,0,1,0,0,0,1 @ F,0,0,1,0,0,0,1 @ F,0,0,1,0,0,0,1 @ F,0,0,1,0,0,0,1"
       radius="0"
       unit="px"
       method="auto"
       mode="F"
       chamfer_steps="1"
       flexible="false"
       use_knot_distance="true"
       apply_no_radius="true"
       apply_with_radius="true"
       only_selected="false"
       hide_knots="false" /><inkscape:path-effect
       effect="fillet_chamfer"
       id="path-effect4"
       is_visible="true"
       lpeversion="1"
       nodesatellites_param="F,0,0,1,0,0,0,1 @ F,0,0,1,0,0,0,1 @ F,0,0,1,0,0,0,1 @ F,0,0,1,0,0,0,1 @ F,0,0,1,0,0,0,1 @ F,0,0,1,0,0,0,1 @ F,0,0,1,0,0,0,1 @ F,0,0,1,0,0,0,1 @ F,0,0,1,0,0,0,1 @ F,0,0,1,0,0,0,1 @ F,0,0,1,0,0,0,1 @ F,0,0,1,0,0,0,1 @ F,0,0,1,0,0,0,1 @ F,0,0,1,0,0,0,1 @ F,0,0,1,0,0,0,1 @ F,0,0,1,0,0,0,1 @ F,0,0,1,0,0,0,1 @ F,0,0,1,0,3.2047405,0,1 @ F,0,0,1,0,0,0,1 @ F,0,0,1,0,0,0,1 @ F,0,0,1,0,0,0,1 @ F,0,0,1,0,3.1353385,0,1 @ F,0,0,1,0,0,0,1 @ F,0,0,1,0,0,0,1 @ F,0,0,1,0,0,0,1 @ F,0,0,1,0,0,0,1 @ F,0,0,1,0,0,0,1 @ F,0,0,1,0,0,0,1 @ F,0,0,1,0,0,0,1 @ F,0,0,1,0,0,0,1"
       radius="0"
       unit="px"
       method="auto"
       mode="F"
       chamfer_steps="1"
       flexible="false"
       use_knot_distance="true"
       apply_no_radius="true"
       apply_with_radius="true"
       only_selected="false"
       hide_knots="false" /><linearGradient
       inkscape:collect="always"
       xlink:href="#linearGradient6"
       id="linearGradient7"
       x1="48.586716"
       y1="118.36163"
       x2="103.38377"
       y2="118.36163"
       gradientUnits="userSpaceOnUse" /></defs><g
     inkscape:label="Capa 1"
     inkscape:groupmode="layer"
     id="layer1"
     transform="translate(-43.655172,-87.568815)"><path
       id="rect2"
       style="fill:url(#linearGradient7);fill-opacity:1;stroke-width:2.99861111;stroke:#ffffff;stroke-dasharray:none;stroke-linecap:square;paint-order:stroke markers fill;stroke-linejoin:round"
       d="m 52.05057,87.568815 c -4.650974,0 -8.395354,3.74438 -8.395354,8.395353 v 6.551542 c -9.9e-5,0.0119 0,0.0238 0,0.0357 v 26.86503 15.11122 c 0,2.28971 1.843371,4.13308 4.133082,4.13308 h 12.393558 9.695016 c -0.0017,0.0646 -0.0026,0.12918 -0.0026,0.19379 1.05e-4,4.03031 3.267439,7.29741 7.297746,7.29723 4.030105,-1.1e-4 7.297124,-3.26713 7.297229,-7.29723 -9e-6,-0.0646 -8.76e-4,-0.12921 -0.0026,-0.19379 h 9.818522 14.187501 a 2.3124996,2.3124996 135 0 0 2.3125,-2.3125 2.2081504,2.2081504 45 0 0 -2.20815,-2.20815 H 83.875823 a 3.2812593,3.2812593 135 0 0 -3.281259,3.28126 v 1.64299 c 0,1.72622 -1.389862,3.11609 -3.116089,3.11609 -1.726227,0 -3.115572,-1.38987 -3.115572,-3.11609 v -1.71124 a 3.2130137,3.2130137 45 0 0 -3.213014,-3.21301 H 52.05057 c -1.931944,0 -3.487126,-1.55518 -3.487126,-3.48713 0,-1.93194 1.555182,-3.48712 3.487126,-3.48712 h 55.18925 a 3.5777103,3.5777103 135 0 0 3.57771,-3.57771 l 0,-41.886234 c 0,-2.289711 -1.84337,-4.133081 -4.13309,-4.133081 H 90.022929 60.143099 Z"
       sodipodi:nodetypes="sscscssccccscccccssscssscssccs"
       inkscape:path-effect="#path-effect6"
       inkscape:original-d="m 52.05057,87.568815 c -4.650974,0 -8.395354,3.74438 -8.395354,8.395353 v 6.551542 c -9.9e-5,0.0119 0,0.0238 0,0.0357 v 26.86503 15.11122 c 0,2.28971 1.843371,4.13308 4.133082,4.13308 h 12.393558 9.695016 c -0.0017,0.0646 -0.0026,0.12918 -0.0026,0.19379 1.05e-4,4.03031 3.267439,7.29741 7.297746,7.29723 4.030105,-1.1e-4 7.297124,-3.26713 7.297229,-7.29723 -9e-6,-0.0646 -8.76e-4,-0.12921 -0.0026,-0.19379 h 9.818522 16.500001 v -4.52065 H 80.594564 v 4.92425 c 0,1.72622 -1.389862,3.11609 -3.116089,3.11609 -1.726227,0 -3.115572,-1.38987 -3.115572,-3.11609 v -4.92425 H 52.05057 c -1.931944,0 -3.487126,-1.55518 -3.487126,-3.48713 0,-1.93194 1.555182,-3.48712 3.487126,-3.48712 h 58.76696 V 91.701896 c 0,-2.289711 -1.84337,-4.133081 -4.13309,-4.133081 H 90.022929 60.143099 Z"
       transform="translate(6.106321,5.3960275)" /><path
       style="font-size:43.0144px;font-family:System-ui;-inkscape-font-specification:'System-ui, Normal';fill:#ffffff;stroke-width:0.199663"
       d="m 99.894456,129.00565 v 3.3605 H 84.380002 v -3.3605 z"
       id="path6" /><path
       style="font-size:43.0144px;font-family:System-ui;-inkscape-font-specification:'System-ui, Normal';fill:#ffffff;stroke-width:0.195171"
       d="m 80.751398,119.09595 -14.951855,10.0395 v -3.90659 l 11.476903,-7.26708 -0.09564,0.21003 v -0.58808 l 0.09564,0.25203 -11.476903,-7.26708 v -3.94858 l 14.951855,10.03949 z"
       id="text6" /></g></svg>

<?xml version="1.0" encoding="UTF-8" standalone="no"?>
<!-- Created with Inkscape (http://www.inkscape.org/) -->

<svg
   width="300"
   height="300"
   viewBox="0 0 79.375 79.375001"
   version="1.1"
   id="svg1"
   xml:space="preserve"
   inkscape:version="1.4.4 (dcaf3e7d9e, 2026-05-05)"
   sodipodi:docname="favicon.svg"
   xmlns:inkscape="http://www.inkscape.org/namespaces/inkscape"
   xmlns:sodipodi="http://sodipodi.sourceforge.net/DTD/sodipodi-0.dtd"
   xmlns:xlink="http://www.w3.org/1999/xlink"
   xmlns="http://www.w3.org/2000/svg"
   xmlns:svg="http://www.w3.org/2000/svg"><sodipodi:namedview
     id="namedview1"
     pagecolor="#ffffff"
     bordercolor="#000000"
     borderopacity="0.25"
     inkscape:showpageshadow="2"
     inkscape:pageopacity="0.0"
     inkscape:pagecheckerboard="0"
     inkscape:deskcolor="#d1d1d1"
     inkscape:document-units="mm"
     showguides="true"
     inkscape:zoom="0.72426347"
     inkscape:cx="230.57907"
     inkscape:cy="231.26943"
     inkscape:window-width="1920"
     inkscape:window-height="1019"
     inkscape:window-x="0"
     inkscape:window-y="0"
     inkscape:window-maximized="1"
     inkscape:current-layer="layer1" /><defs
     id="defs1"><linearGradient
       id="linearGradient6"
       inkscape:collect="always"><stop
         style="stop-color:#266791;stop-opacity:1;"
         offset="0"
         id="stop6" /><stop
         style="stop-color:#369d99;stop-opacity:1"
         offset="1"
         id="stop7" /></linearGradient><inkscape:path-effect
       effect="fillet_chamfer"
       id="path-effect6"
       is_visible="true"
       lpeversion="1"
       nodesatellites_param="F,0,0,1,0,0,0,1 @ F,0,0,1,0,0,0,1 @ F,0,0,1,0,0,0,1 @ F,0,0,1,0,0,0,1 @ F,0,0,1,0,0,0,1 @ F,0,0,1,0,0,0,1 @ F,0,0,1,0,0,0,1 @ F,0,0,1,0,0,0,1 @ F,0,0,1,0,0,0,1 @ F,0,0,1,0,0,0,1 @ F,0,0,1,0,0,0,1 @ F,0,0,1,0,0,0,1 @ F,0,0,1,0,0,0,1 @ F,0,0,1,0,0,0,1 @ F,0,0,1,0,2.3124996,0,1 @ F,0,0,1,0,2.2081504,0,1 @ F,0,0,1,0,3.2812593,0,1 @ F,0,0,1,0,0,0,1 @ F,0,0,1,0,0,0,1 @ F,0,0,1,0,0,0,1 @ F,0,0,1,0,3.2130137,0,1 @ F,0,0,1,0,0,0,1 @ F,0,0,1,0,0,0,1 @ F,0,0,1,0,0,0,1 @ F,0,0,1,0,3.5777103,0,1 @ F,0,0,1,0,0,0,1 @ F,0,0,1,0,0,0,1 @ F,0,0,1,0,0,0,1 @ F,0,0,1,0,0,0,1"
       radius="0"
       unit="px"
       method="auto"
       mode="F"
       chamfer_steps="1"
       flexible="false"
       use_knot_distance="true"
       apply_no_radius="true"
       apply_with_radius="true"
       only_selected="false"
       hide_knots="false" /><inkscape:path-effect
       effect="fillet_chamfer"
       id="path-effect5"
       is_visible="true"
       lpeversion="1"
       nodesatellites_param="F,0,0,1,0,0,0,1 @ F,0,0,1,0,0,0,1 @ F,0,0,1,0,0,0,1 @ F,0,0,1,0,0,0,1 @ F,0,0,1,0,0,0,1 @ F,0,0,1,0,0,0,1 @ F,0,0,1,0,0,0,1 @ F,0,0,1,0,0,0,1 @ F,0,0,1,0,0,0,1 @ F,0,0,1,0,0,0,1 @ F,0,0,1,0,0,0,1 @ F,0,0,1,0,0,0,1 @ F,0,0,1,0,0,0,1 @ F,0,0,1,0,1.4982399,0,1 @ F,0,0,1,0,0,0,1 @ F,0,0,1,0,0,0,1 @ F,0,0,1,0,0,0,1 @ F,0,0,1,0,0,0,1 @ F,0,0,1,0,0,0,1 @ F,0,0,1,0,0,0,1 @ F,0,0,1,0,0,0,1 @ F,0,0,1,0,0,0,1 @ F,0,0,1,0,0,0,1 @ F,0,0,1,0,0,0,1 @ F,0,0,1,0,0,0,1 @ F,0,0,1,0,0,0,1 @ F,0,0,1,0,0,0,1 @ F,0,0,1,0,0,0,1 @ F,0,0,1,0,0,0,1"
       radius="0"
       unit="px"
       method="auto"
       mode="F"
       chamfer_steps="1"
       flexible="false"
       use_knot_distance="true"
       apply_no_radius="true"
       apply_with_radius="true"
       only_selected="false"
       hide_knots="false" /><inkscape:path-effect
       effect="fillet_chamfer"
       id="path-effect4"
       is_visible="true"
       lpeversion="1"
       nodesatellites_param="F,0,0,1,0,0,0,1 @ F,0,0,1,0,0,0,1 @ F,0,0,1,0,0,0,1 @ F,0,0,1,0,0,0,1 @ F,0,0,1,0,0,0,1 @ F,0,0,1,0,0,0,1 @ F,0,0,1,0,0,0,1 @ F,0,0,1,0,0,0,1 @ F,0,0,1,0,0,0,1 @ F,0,0,1,0,0,0,1 @ F,0,0,1,0,0,0,1 @ F,0,0,1,0,0,0,1 @ F,0,0,1,0,0,0,1 @ F,0,0,1,0,0,0,1 @ F,0,0,1,0,0,0,1 @ F,0,0,1,0,0,0,1 @ F,0,0,1,0,0,0,1 @ F,0,0,1,0,3.2047405,0,1 @ F,0,0,1,0,0,0,1 @ F,0,0,1,0,0,0,1 @ F,0,0,1,0,0,0,1 @ F,0,0,1,0,3.1353385,0,1 @ F,0,0,1,0,0,0,1 @ F,0,0,1,0,0,0,1 @ F,0,0,1,0,0,0,1 @ F,0,0,1,0,0,0,1 @ F,0,0,1,0,0,0,1 @ F,0,0,1,0,0,0,1 @ F,0,0,1,0,0,0,1 @ F,0,0,1,0,0,0,1"
       radius="0"
       unit="px"
       method="auto"
       mode="F"
       chamfer_steps="1"
       flexible="false"
       use_knot_distance="true"
       apply_no_radius="true"
       apply_with_radius="true"
       only_selected="false"
       hide_knots="false" /><linearGradient
       inkscape:collect="always"
       xlink:href="#linearGradient6"
       id="linearGradient7"
       x1="48.586716"
       y1="118.36163"
       x2="103.38377"
       y2="118.36163"
       gradientUnits="userSpaceOnUse" /></defs><g
     inkscape:label="Capa 1"
     inkscape:groupmode="layer"
     id="layer1"
     transform="translate(-43.655172,-87.568815)"><rect
       style="fill:#f2f2f2;stroke-width:2.9986;stroke-linecap:square;stroke-linejoin:round;paint-order:stroke markers fill"
       id="rect1"
       width="79.375"
       height="79.375"
       x="43.65517"
       y="87.568817"
       rx="8.7675276"
       ry="8.7675276" /><path
       id="rect2"
       style="fill:url(#linearGradient7);fill-opacity:1;stroke-width:2.99861111;stroke:none;stroke-dasharray:none;stroke-linecap:square;paint-order:stroke markers fill;stroke-linejoin:round"
       d="M 52.050808 87.568841 C 47.399834 87.568841 43.655455 91.313221 43.655455 95.964194 L 43.655455 102.51573 C 43.655356 102.52763 43.655455 102.53949 43.655455 102.55139 L 43.655455 129.41642 L 43.655455 144.52764 C 43.655455 146.81735 45.498825 148.66072 47.788536 148.66072 L 60.182095 148.66072 L 69.87711 148.66072 C 69.87541 148.72532 69.874526 148.7899 69.874526 148.85451 C 69.874631 152.88482 73.141965 156.15191 77.172272 156.15173 C 81.202377 156.15162 84.469396 152.88461 84.469501 148.85451 C 84.469492 148.78991 84.468125 148.7253 84.466401 148.66072 L 94.284923 148.66072 L 108.47269 148.66072 A 2.3124996 2.3124996 0 0 0 110.78521 146.3482 A 2.2081504 2.2081504 0 0 0 108.57707 144.14006 L 83.875739 144.14006 A 3.2812593 3.2812593 0 0 0 80.594802 147.42152 L 80.594802 149.06431 C 80.594802 150.79053 79.20494 152.1804 77.478713 152.1804 C 75.752486 152.1804 74.363141 150.79053 74.363141 149.06431 L 74.363141 147.35331 A 3.2130137 3.2130137 0 0 0 71.149901 144.14006 L 52.050808 144.14006 C 50.118864 144.14006 48.563683 142.58489 48.563683 140.65294 C 48.563683 138.721 50.118864 137.16581 52.050808 137.16581 L 107.23969 137.16581 A 3.5777103 3.5777103 0 0 0 110.81776 133.58825 L 110.81776 91.701922 C 110.81776 89.412211 108.9744 87.568841 106.68468 87.568841 L 90.023167 87.568841 L 60.143337 87.568841 L 52.050808 87.568841 z M 59.693236 101.22382 L 74.645295 111.26352 L 74.645295 113.70006 L 59.693236 123.73924 L 59.693236 119.83302 L 71.074453 112.62623 L 71.074453 112.37921 L 59.693236 105.17242 L 59.693236 101.22382 z M 78.273497 123.60953 L 93.788312 123.60953 L 93.788312 126.97005 L 78.273497 126.97005 L 78.273497 123.60953 z "
       transform="translate(6.106321,5.3960275)" /></g></svg>
